site/assets/public/img/hotel.svg

<?xml version="1.0" encoding="utf-8"?><!DOCTYPE svg PUBLIC "-//W3C//DTD SVG 1.0//EN" "http://www.w3.org/TR/2001/REC-SVG-20010904/DTD/svg10.dtd"><svg version="1.0" xmlns="http://www.w3.org/2000/svg" xmlns:xlink="http://www.w3.org/1999/xlink" x="0px" y="0px" viewBox="0 0 100 60.921" enable-background="new 0 0 100 60.921" xml:space="preserve"><path d="M91.669,45.384v15.537h8.203V37.693H8.139V4.088C8.139,1.84,6.337,0,4.063,0l0,0C1.814,0,0,1.84,0,4.088v56.833h8.139
	V45.384H91.669z"></path><path d="M20.661,20.469c4.076,0,7.372-3.296,7.372-7.385c0-4.063-3.296-7.359-7.372-7.359c-4.076,0-7.373,3.296-7.373,7.359
	C13.288,17.172,16.584,20.469,20.661,20.469z"></path><path d="M100,31.585L99.975,21.44c-0.026-3.22-2.734-5.443-5.878-5.826L36.185,9.838c-0.115-0.025-0.217-0.077-0.319-0.077
	c-2.006,0-3.628,1.635-3.628,3.628v10.938H17.096c-2.032,0-3.654,1.636-3.654,3.629c0,2.019,1.623,3.629,3.654,3.629H100z"></path></svg>

<svg width="101px" height="61px" viewBox="0 0 101 61" version="1.1" xmlns="http://www.w3.org/2000/svg" xmlns:xlink="http://www.w3.org/1999/xlink">
    <!-- Generator: Sketch 43.1 (39012) - http://www.bohemiancoding.com/sketch -->
    <desc>Created with Sketch.</desc>
    <defs></defs>
    <g id="Page-1" stroke="none" stroke-width="1" fill="none" fill-rule="evenodd">
        <g id="Artboard" fill-rule="nonzero" fill="#C47825">
            <g id="Group" transform="translate(1.000000, 0.000000)">
                <path d="M91.669,45.384 L91.669,60.921 L99.872,60.921 L99.872,37.693 L8.139,37.693 L8.139,4.088 C8.139,1.84 6.337,0 4.063,0 L4.063,0 C1.814,0 0,1.84 0,4.088 L0,60.921 L8.139,60.921 L8.139,45.384 L91.669,45.384 Z" id="Shape"></path>
                <path d="M20.661,20.469 C24.737,20.469 28.033,17.173 28.033,13.084 C28.033,9.021 24.737,5.725 20.661,5.725 C16.585,5.725 13.288,9.021 13.288,13.084 C13.288,17.172 16.584,20.469 20.661,20.469 Z" id="Shape"></path>
                <path d="M100,31.585 L99.975,21.44 C99.949,18.22 97.241,15.997 94.097,15.614 L36.185,9.838 C36.07,9.813 35.968,9.761 35.866,9.761 C33.86,9.761 32.238,11.396 32.238,13.389 L32.238,24.327 L17.096,24.327 C15.064,24.327 13.442,25.963 13.442,27.956 C13.442,29.975 15.065,31.585 17.096,31.585 L100,31.585 Z" id="Shape"></path>
            </g>
        </g>
    </g>
</svg>
